X: 1
T: Hassebly Steppen
O: arr. Carl J.Johnson
R: polka
Z: 2019 John Chambers <jc:trillian.mit.edu>
M: 2/4
L: 1/16
K: C
%%continueall 0
% - - - - - - - - - -
"^A"|:\
"C"[G2E2][GE][GE] "G7"[G2E2]F2 | "C"E2G2 [c2E2]B2 | "F"[A2F2][AF][AF] [A2F2]G2 | "Dm"F2A2 d2c2 |\
"G7"[B2F2][BF][BF] [B2F2][B2F2] | B4 A2B2 |[1,3 "C"A2GG G2E2 | G6 E2 :|[2,4 "C"c2EF "G7"^FGAB | "C"[c2E2]z2 !fine![c2E2]z2 :|
% - - - - - - - - - -
"^B"|:\
"C"G4 E2C2 | A2G2 E2C2 | "G7"F2FF F2D2 | B,6 z2 | F2FF F2D2 |\
[1,3 "G7"B,6 A2 | "C"G2GG G2E2 | C6 z2 :|[2,4 "G7"B,2G2 A2B2 | "C"c2EF GABc | "C"[c2E2]z2 [c2E2]z2 :|
% - - - - - - - - - -
[K:F]"^C"|:\
"F"c2Ac f2cA | "C7"cBBd d2c2 | c2eg b2ge | "F"gffa a2f2 ||\
"F"c2Ac f2cA | "C7"cBBd d2c2 | c2eg bgeg |1 "F"[f2A2][a2A2] [f2A2]z2 :|2 "F"[f2A2][a2A2] [f2A2] ||
% - - - - - - - - - -
"^D"|: fa |\
"F"c'2fa c'2fa | "C7"c'2bb b2eg | b2eg b2eg | "F"b2a2 a2fa ||\
"F"c'2fa c'2fa | "C7"c'2bb b2eg | b2eg bgeg | "F"[f2A2][a2A2] [f2A2]"^d.C."z2 |]
% - - - - - - - - - -
